X:1225
T:der Freischutz Waltz
A:Wyresdale, Lancashire
B:E and J Winder, 1835-41
L:1/8
M:3/4
O:England
Z:Richard Robinson 
%%TranscriptionNotes:Some guesswork here owing to imperfect legibility
%%TUNEURL: http://www.leeds.ac.uk/music/Info/RRTuneBk/gettune/00001171.html
%%ID:00001171
K:C
Gce | \
(ag).e.G.c.e | (ag).e.G.b.d | (gf).d.G.d.f | (fe).c.G.c.e | \
(ag).e.G.c.e | (ag).e.G.c.e | (gf).d.G.B.d | c2 z ||
DGB | \
(ed)BDGB | (ed)BDGB | (dc)AD^FA | (cB)AD^FA | \
(ed)BDGB | (ed)BDGB | (dc)AD^FA | G2 z |]
